svg/300/outlined/deck-fill.svg

<svg xmlns="http://www.w3.org/2000/svg" width="48" height="48" viewBox="0 -960 960 960"><path d="M457.308-90v-520.001H111.541L480-867.691l368.459 257.69H502.692v520h-45.384Zm-327.307 0v-209.078L99.539-466l44.153-7.307 30.846 162.922h160.846v220.384h-45.383v-175H175.384v175h-45.383Zm494.615 0v-220.385h160.846l30.846-162.922L860.461-466l-30.462 166.922v209.077h-45.383v-175H669.999v175h-45.383Z"/></svg>

<svg xmlns="http://www.w3.org/2000/svg" width="48" height="48" viewBox="0 -960 960 960"><path d="M457.31-90v-520H111.54L480-867.69 848.46-610H502.69v520h-45.38ZM130-90v-209.08L99.54-466l44.15-7.31 30.85 162.93h160.84V-90H290v-175H175.38v175H130Zm494.62 0v-220.38h160.84l30.85-162.93 44.15 7.31L830-299.08V-90h-45.38v-175H670v175h-45.38Z"/></svg>
